docs/src/lib/images/components/03.svg

<svg class="typst-doc" viewBox="0 0 170.07874015748033 170.07874015748033" width="170.07874015748033pt" height="170.07874015748033pt" xmlns="http://www.w3.org/2000/svg" xmlns:xlink="http://www.w3.org/1999/xlink" xmlns:h5="http://www.w3.org/1999/xhtml">
    <path class="typst-shape" fill="#ffffff" fill-rule="nonzero" d="M 0 0 L 0 170.07874 L 170.07874 170.07874 L 170.07874 0 Z "/>
    <g>
        <g transform="translate(0 0)">
            <g class="typst-group">
                <g>
                    <g transform="translate(28.346456692913385 0)">
                        <path class="typst-shape" fill="none" stroke="#e6e6e6" stroke-width="0.5" stroke-linecap="butt" stroke-linejoin="miter" stroke-miterlimit="4" d="M 0 170.07874 L 0 0 "/>
                    </g>
                    <g transform="translate(56.69291338582677 0)">
                        <path class="typst-shape" fill="none" stroke="#e6e6e6" stroke-width="0.5" stroke-linecap="butt" stroke-linejoin="miter" stroke-miterlimit="4" d="M 0 170.07874 L 0 0 "/>
                    </g>
                    <g transform="translate(85.03937007874016 0)">
                        <path class="typst-shape" fill="none" stroke="#e6e6e6" stroke-width="0.5" stroke-linecap="butt" stroke-linejoin="miter" stroke-miterlimit="4" d="M 0 170.07874 L 0 0 "/>
                    </g>
                    <g transform="translate(113.38582677165354 0)">
                        <path class="typst-shape" fill="none" stroke="#e6e6e6" stroke-width="0.5" stroke-linecap="butt" stroke-linejoin="miter" stroke-miterlimit="4" d="M 0 170.07874 L 0 0 "/>
                    </g>
                    <g transform="translate(141.73228346456693 0)">
                        <path class="typst-shape" fill="none" stroke="#e6e6e6" stroke-width="0.5" stroke-linecap="butt" stroke-linejoin="miter" stroke-miterlimit="4" d="M 0 170.07874 L 0 0 "/>
                    </g>
                    <g transform="translate(0 141.73228346456693)">
                        <path class="typst-shape" fill="none" stroke="#e6e6e6" stroke-width="0.5" stroke-linecap="butt" stroke-linejoin="miter" stroke-miterlimit="4" d="M 0 0 L 170.07874 0 "/>
                    </g>
                    <g transform="translate(0 113.38582677165354)">
                        <path class="typst-shape" fill="none" stroke="#e6e6e6" stroke-width="0.5" stroke-linecap="butt" stroke-linejoin="miter" stroke-miterlimit="4" d="M 0 0 L 170.07874 0 "/>
                    </g>
                    <g transform="translate(0 85.03937007874016)">
                        <path class="typst-shape" fill="none" stroke="#e6e6e6" stroke-width="0.5" stroke-linecap="butt" stroke-linejoin="miter" stroke-miterlimit="4" d="M 0 0 L 170.07874 0 "/>
                    </g>
                    <g transform="translate(0 56.69291338582677)">
                        <path class="typst-shape" fill="none" stroke="#e6e6e6" stroke-width="0.5" stroke-linecap="butt" stroke-linejoin="miter" stroke-miterlimit="4" d="M 0 0 L 170.07874 0 "/>
                    </g>
                    <g transform="translate(0 28.346456692913385)">
                        <path class="typst-shape" fill="none" stroke="#e6e6e6" stroke-width="0.5" stroke-linecap="butt" stroke-linejoin="miter" stroke-miterlimit="4" d="M 0 0 L 170.07874 0 "/>
                    </g>
                    <g transform="translate(0 0)">
                        <path class="typst-shape" fill="none" stroke="#e6e6e6" stroke-width="0.5" stroke-linecap="butt" stroke-linejoin="miter" stroke-miterlimit="4" d="M 0 170.07874 L 170.07874 170.07874 L 170.07874 0 L 0 0 L 0 170.07874 Z "/>
                    </g>
                    <g transform="translate(60.94488188976378 75.11811023622047)">
                        <path class="typst-shape" fill="#ffffff" fill-rule="nonzero" stroke="#000000" stroke-width="0.8" stroke-linecap="butt" stroke-linejoin="miter" stroke-miterlimit="4" d="M 0 0 L 36.850395 0 L 48.188976 9.92126 L 36.850395 19.84252 L 0 19.84252 L 0 0 Z "/>
                    </g>
                    <g transform="translate(62.55640157480315 74.36537007874016)">
                        <path class="typst-shape" fill="none" d="M 0 0 L 36.462 0 L 36.462 21.348 L 0 21.348 L 0 0 Z "/>
                    </g>
                    <g transform="translate(62.55640148031496 74.36537007874016)">
                        <g class="typst-group">
                            <g>
                                <g transform="translate(0 0)">
                                    <g class="typst-group">
                                        <g>
                                            <g transform="translate(7 14.238000000000001)">
                                                <g class="typst-text" transform="scale(1, -1)">
                                                    <use xlink:href="#g1D73A7A3000FC25AB5C09DB0E511C1F1" x="0" fill="#000000" fill-rule="nonzero"/>
                                                    <use xlink:href="#g3ACBDEFEE62D886C68713244CC221B65" x="7.645" fill="#000000" fill-rule="nonzero"/>
                                                    <use xlink:href="#gBF9038B6E31B12AA99CB1C7BD3EC51D4" x="15.355999999999998" fill="#000000" fill-rule="nonzero"/>
                                                </g>
                                            </g>
                                        </g>
                                    </g>
                                </g>
                            </g>
                        </g>
                    </g>
                    <g transform="translate(0 85.03937007874016)">
                        <path class="typst-shape" fill="none" stroke="#000000" stroke-width="0.5" stroke-linecap="butt" stroke-linejoin="miter" stroke-miterlimit="4" d="M 0 0 L 60.94488 0 "/>
                    </g>
                    <g transform="translate(109.13385826771652 85.03937007874016)">
                        <path class="typst-shape" fill="none" stroke="#000000" stroke-width="0.5" stroke-linecap="butt" stroke-linejoin="miter" stroke-miterlimit="4" d="M 0 0 L 60.94488 0 "/>
                    </g>
                </g>
            </g>
        </g>
    </g>
    <defs id="glyph">
        <symbol id="g1D73A7A3000FC25AB5C09DB0E511C1F1" overflow="visible">
            <path d="M 1.705 0.869 L 2.31 2.464 C 2.365 2.6069999 2.431 2.651 2.695 2.651 L 5.016 2.651 L 5.654 0.792 C 5.786 0.41799998 5.368 0.374 4.84 0.341 C 4.774 0.275 4.774 0.044 4.84 -0.022 C 5.2469997 -0.011 5.8519998 0 6.281 0 C 6.732 0 7.15 -0.011 7.535 -0.022 C 7.601 0.044 7.601 0.275 7.535 0.341 C 7.106 0.385 6.732 0.41799998 6.545 0.946 L 4.279 7.238 C 4.114 7.139 3.817 7.018 3.674 7.018 L 1.177 1.122 C 0.891 0.44 0.561 0.374 0.077 0.341 C 0.011 0.275 0.011 0.044 0.077 -0.022 C 0.363 -0.011 0.726 0 1.056 0 C 1.507 0 2.057 -0.011 2.464 -0.022 C 2.53 0.044 2.53 0.275 2.464 0.341 C 2.046 0.374 1.529 0.41799998 1.705 0.869 Z M 2.893 3.113 C 2.651 3.113 2.574 3.146 2.618 3.256 L 3.74 6.105 L 3.806 6.105 L 4.84 3.113 Z "/>
        </symbol>
        <symbol id="g3ACBDEFEE62D886C68713244CC221B65" overflow="visible">
            <path d="M 1.628 7.095 C 1.232 7.095 0.649 7.106 0.20899999 7.117 C 0.143 7.051 0.143 6.82 0.20899999 6.754 C 0.979 6.721 1.166 6.666 1.166 5.753 L 1.166 1.342 C 1.166 0.429 0.979 0.374 0.20899999 0.341 C 0.143 0.275 0.143 0.044 0.20899999 -0.022 C 0.638 -0.011 1.221 0 1.6389999 0 C 2.046 0 2.508 -0.022 3.641 -0.022 C 5.192 -0.022 7.238 0.682 7.238 3.388 C 7.238 5.434 5.555 7.117 3.443 7.117 C 2.662 7.117 2.057 7.095 1.628 7.095 Z M 2.101 0.924 L 2.101 6.204 C 2.101 6.5889997 2.486 6.743 3.025 6.743 C 5.401 6.743 6.182 4.818 6.182 3.124 C 6.182 0.902 4.851 0.352 3.3 0.352 C 2.222 0.352 2.101 0.572 2.101 0.924 Z "/>
        </symbol>
        <symbol id="gBF9038B6E31B12AA99CB1C7BD3EC51D4" overflow="visible">
            <path d="M 3.927 -0.11 C 4.994 -0.11 5.973 0.396 6.721 1.375 C 6.666 1.474 6.5889997 1.54 6.468 1.54 C 5.687 0.682 4.939 0.341 3.916 0.341 C 2.431 0.341 1.408 2.013 1.408 3.619 C 1.408 4.565 1.661 5.357 2.057 5.8519998 C 2.6069999 6.523 3.245 6.831 3.817 6.831 C 5.335 6.831 5.94 5.929 6.226 4.983 C 6.358 4.939 6.468 4.972 6.5889997 5.038 C 6.534 5.61 6.457 6.138 6.347 6.743 C 5.786 6.798 5.291 7.238 3.938 7.238 C 3.003 7.238 2.222 6.897 1.573 6.303 C 0.847 5.632 0.407 4.554 0.407 3.41 C 0.407 1.496 1.562 -0.11 3.927 -0.11 Z "/>
        </symbol>
    </defs>
</svg>

<svg xmlns="http://www.w3.org/2000/svg" xmlns:xlink="http://www.w3.org/1999/xlink" width="226.772" height="226.772" class="typst-doc" viewBox="0 0 170.079 170.079"><path fill="#fff" d="M0 0v170.079h170.079V0Z" class="typst-shape"/><g class="typst-group"><path fill="none" stroke="#e6e6e6" stroke-width=".5" d="M28.346 170.079V0M56.693 170.079V0M85.04 170.079V0M113.386 170.079V0M141.732 170.079V0M0 141.732h170.079M0 113.386h170.079M0 85.04h170.079M0 56.693h170.079M0 28.346h170.079M0 170.079h170.079V0H0z" class="typst-shape"/><path fill="#fff" stroke="#000" stroke-width=".8" d="M60.945 75.118h36.85l11.339 9.921-11.339 9.922h-36.85z" class="typst-shape"/><path fill="none" d="M62.556 74.365h36.462v21.348H62.556z" class="typst-shape"/><g class="typst-group"><g class="typst-group"><g class="typst-text" transform="matrix(1 0 0 -1 69.556 88.603)"><use xlink:href="#a"/><use xlink:href="#b" x="7.645"/><use xlink:href="#c" x="15.356"/></g></g></g><path fill="none" stroke="#000" stroke-width=".5" d="M0 85.04h60.945M109.134 85.04h60.945" class="typst-shape"/></g><defs><symbol id="a" overflow="visible"><path d="m1.705.869.605 1.595c.055.143.121.187.385.187h2.321L5.654.792C5.786.418 5.368.374 4.84.341c-.066-.066-.066-.297 0-.363C5.247-.011 5.852 0 6.281 0c.451 0 .869-.011 1.254-.022.066.066.066.297 0 .363-.429.044-.803.077-.99.605L4.279 7.238c-.165-.099-.462-.22-.605-.22L1.177 1.122C.891.44.561.374.077.341.011.275.011.044.077-.022.363-.011.726 0 1.056 0c.451 0 1.001-.011 1.408-.022.066.066.066.297 0 .363-.418.033-.935.077-.759.528m1.188 2.244c-.242 0-.319.033-.275.143L3.74 6.105h.066L4.84 3.113Z"/></symbol><symbol id="b" overflow="visible"><path d="M1.628 7.095c-.396 0-.979.011-1.419.022-.066-.066-.066-.297 0-.363.77-.033.957-.088.957-1.001V1.342C1.166.429.979.374.209.341.143.275.143.044.209-.022.638-.011 1.221 0 1.639 0c.407 0 .869-.022 2.002-.022 1.551 0 3.597.704 3.597 3.41 0 2.046-1.683 3.729-3.795 3.729-.781 0-1.386-.022-1.815-.022M2.101.924v5.28c0 .385.385.539.924.539 2.376 0 3.157-1.925 3.157-3.619C6.182.902 4.851.352 3.3.352c-1.078 0-1.199.22-1.199.572"/></symbol><symbol id="c" overflow="visible"><path d="M3.927-.11c1.067 0 2.046.506 2.794 1.485-.055.099-.132.165-.253.165C5.687.682 4.939.341 3.916.341c-1.485 0-2.508 1.672-2.508 3.278 0 .946.253 1.738.649 2.233.55.671 1.188.979 1.76.979 1.518 0 2.123-.902 2.409-1.848.132-.044.242-.011.363.055-.055.572-.132 1.1-.242 1.705-.561.055-1.056.495-2.409.495-.935 0-1.716-.341-2.365-.935C.847 5.632.407 4.554.407 3.41c0-1.914 1.155-3.52 3.52-3.52"/></symbol></defs></svg>
